X: 100263
T: LES FARCEURS VALSE #4
C: Par J. J. Hoglen, Edinburgh
R: waltz
B: K\"ohler's Violin Repository, v.3, 1885 p.198
F: http://www.archive.org/details/klersviolinrepos03rugg
Z: 2012 John Chambers <jc:trillian.mit.edu>
M: 3/4
L: 1/8
K: D
(vAB//c//d//e// |\
f4) vf2 | f4 (AB//c//d//e// | f4) vf2 | (.f4 .f2) |\
(b4 a2) | (g4 f2) | (e4 d2) | c4 (vAB//c//d//e// |
f4) vf2 | f4 (Bc//d//e//f// | g4) vg2 | (.g4 .g2) |\
(c'4 b2) | (a4 g2) | (f4 e2) | d4 H||
ue2 |\
(.e4 .e2) | (.e4 .e2) | (e c'3) vb2 | (a4 ^g2) |\
(.f4 .f2) | (.f4 .f2) | (f a3) va2 | (^g4 e2) |\
(.e4 .e2) | (.e4 .e2) |
(e c'3) vb2 | (a4 ^g2 ) |\
[1 (f4 ^g2) | (a4 b2) | (c'4 ^b2) | c'4 :|\
[2 (f4 b2) | (a4 ^g2) | (f4 ^e2) | f4 "_D.C."|]

%%sep 2 1 500

